X:1
T:PERICÓN NACIONAL
T:Gerardo Grasso
T:Danza popular del Uruguay (Uruguay's Folk Dance) 
C:Gerardo Grasso
%%score 1 { 2 | ( 3 4 ) }
L:1/8
Q:1/4=67
M:3/8
K:Ab
V:1 treble nm="Piano"
V:2 treble nm="Piano"
V:3 bass 
V:4 bass 
V:1
"_Moderato" z3 | z3 | z3 | z3 | z3 | z3 | z3 | z3 | z3 | z3 | z3 | z3 | z3 | z3 | z3 | z3 | z3 | %17
 z3 | z3 | z3 | z3 | z3 | z3 | z3 | z3 | z3 | z3 | z3 | z3 | z3 | z3 | z3 | z3 | z3 | z3 | z3 | %36
 z3 | z3 | z3 | z3 | z3 | z3 | z3 | z3 | z3 | z3 | z3 | z3 | z3 | z3 | z3 | z3 | z3 | z3 | z3 | %55
 z3 | z3 | z3 | z3 | z3 | z3 | z3 | z3 | z3 | z3 | z3 | z3 |: z3 | z3 | z3 | z3 | z3 | z3 |1 z3 | %74
 z3 :|2 a!p! e'/e'/e'/e'/ || (!^!c'/e'/)e'/e'/e'/e'/ | (!^!d'/e'/)e'/e'/e'/e'/ | %78
 (!^!d'/e'/)e'/e'/e'/e'/ | (!^!c'/e'/)e'/e'/e'/e'/ | (!^!c'/e'/)e'/e'/e'/e'/ | %81
 (!^!d'/e'/)e'/e'/e'/e'/ | (!^!d'/e'/)e'/e'/e'/e'/ | z3 | z3 | z3 | z3 | z3 | z3 | z3!dacoda! |: %90
 z3 | z3 | z3 | z3 | z3 | z3 | z3 | z3 | z3 ||[K:Db] z3 | z3 | z3 | z3 | z3 | z3 | z3 | z3 || z3 | %108
 z3 | z3 | z3 | z3 | z3 | z3 | z3 | z3 | z3 | z3 | z3 | z3 | z3!D.C.! :|[K:Ab]O"_CODA" z3 | z3 | %123
 z3 | z3 | z3 | z3 | z3 | z3 | z3 | z3 | z3 | z3 | z3 | z3 | z3 | z3 | z3 |] %138
V:2
!pp! .A.C.E | A C/>E/F/>E/ | .G.D.E | G D/>E/F/>E/ | ACE | A C/>E/F/>E/ | GDE | G D/>E/F/>E/ | %8
!mf! A!<(! (3(c/e/a/) c'-!<)! | c'/g/b/f/a/e/ | gfe | dcB | A!<(! A/G/A/B/ | %13
"_cres." c/d/e/f/g/a/!<)! |!>(! b/f/a/e/ g!>)! |!p! z/ c/e/B/d/G/ | A (3(E/F/E/) C | %17
 (3(E/F/E/) C (3(E/F/E/) | D (3(E/F/E/) D | (3(E/F/E/) D (3(E/F/E/) | C (3(E/F/E/) C | %21
 (3(E/F/E/) C (3(E/F/E/) | D g>f | f/>e/e/>d/d/>B/ |!p! A z2 | z3 | z3 | z3 | z3 | z3 | z c'2- | %31
 c'/>c'/c'/>c'/c'/>c'/ | c'/>b/b/>=a/ b- | b/>b/b/>b/b/>b/ | b/>a/a/>g/ a- | a/>a/a/>a/a/>a/ | %36
 a/>g/g/>f/ g- | g/>f/f/>g/g/>f/ | f/>e/e/>=d/ e- | e/>e/e/>f/f/>c/ | e/>d/d/>c/ d- | %41
 d/>d/d/>e/e/>c/ | d/>c/c/>=B/ c- | c/>c/c/>d/d/>A/ | c/>B/B/>=A/ B- | B/>B/B/>c/c/>B/ | %46
 A/ z/4 c/4!p!c/ z/4 G/4G/ z/4 B/4 | B/ z/4 A/4A/ z/4 F/4F/ z/4 E/4 | %48
 E/ z/4 G/4G/ z/4 B/4B/ z/4 d/4 | d/ z/4 c/4c/ z/4 B/4B/ z/4 A/4 | A!ff! [cc'][Gg] | [Bb][Aa][Ff] | %52
 [Ee][Gg][Bb] | [dd'][cc'][Bb] | [Aa]!p!!<(! A/G/A/B/ | c/d/e/f/g/a/!<)! |!>(! b/f/a/e/ g!>)! | %57
 z/ c/e/B/d/G/ |!pp! A/>E/_C/>E/_F/>E/ | A/>E/_C/>E/_F/>E/ | G/>E/D/>E/_F/>E/ | G/>E/D/>E/_F/>E/ | %62
 A/E/_C/E/_F/E/ | A/E/_C/E/_F/E/ | G/E/D/E/_F/E/ | G/E/D/E/_F/E/ | %66
!f! A/ (3(a/4b/4a/4)"_brillante" g/a/b/a/ |:!f! a/g/^f/g/a/g/ | g/f/=e/f/g/f/ | f/e/=d/f/ e | %70
 z/ (3(c/4d/4c/4) =B/c/d/c/ | c/B/=A/B/ e | z/ (3(B/4c/4B/4) =A/B/c/B/ |1 B/A/G/A/ E | %74
 z/!f! (3(a/4b/4a/4) g/a/b/a/ :|2!p! a (3(E/F/E/) C || (3(E/F/E/) C (3(E/F/E/) | D (3(E/F/E/) D | %78
 (3(E/F/E/) D (3(E/F/E/) | C (3(E/F/E/) C | (3(E/F/E/) C (3(E/F/E/) | D (3(E/F/E/) D | %82
 (3(E/F/E/) D (3(E/F/E/) | C/!mf! z/4 c'/4 c' c'/c'/ | c' b/=a/ b | z3/4 d'/4 d' d'/d'/ | %86
 d' c'/=b/ c' | z3/4 c'/4 c' b/a/ |"_cres."!<(! g/a/f/g/e/f/!<)! |!>(! d/e/c/d/B/c/!>)! |: %90
!pp! ACE | A C/>E/F/>E/ | GDE | G D/>E/F/>E/ | ACE | A C/>E/F/>E/ | GDE | G D/>E/F/>E/ | A z2 || %99
[K:Db]!ff! z [A,DF][A,DF] | z !arpeggio![A,DF]2 | z [A,CG][A,CG] | z !arpeggio![A,CG]2 | %103
 z [A,DF][A,DF] | z !arpeggio![A,DF]2 | z [A,CG][A,CG] | z [A,CG]2 || %107
"_cantabile""^Poco Meno."!pp! ddd- | d !>!d2 | c e2- | e z (f | g) e2- | ecG | F3- | F2 A | B A2- | %116
 A2 F | E A2- | A z c | B d2- | d z =G :|[K:Ab]!ff! A z2 | [ee']b!>![ee']- | [ee']c'!>![ee']- | %124
 [ee'] e/=e/f/g/ | ace | g/b/ e'e | a/c'/ e'e | [ee']2 [dd'] | !>![ceac']!>![ceac']!>![ceac'] | %130
 !>![egbe']!>![egbe']!>![egbe'] | [cea] z2 | z!pp! C/>E/F/>E/ | G z2 |!ff! g/b/e'/e/f/g/ | a z2 | %136
 !>![eac'] z3/2 [CEA]/ | !fermata![CEA]3 |] %138
V:3
 .A,.C,.E, | A, C,/>E,/F,/>E,/ | .G,.D,.E, | G, D,/>E,/F,/>E,/ | %4
"^marcato il bass"!ped! A,,C,E,!ped-up! |!ped! A,,C,E,!ped-up! |!ped! B,,D,E,!ped-up! | %7
!ped! B,,D,E,!ped-up! | A,,C,E, | A,,C,E, | E,,G,,B,, | G,,B,,E, | A,,C,E, | A,,C,E, | E,,G,,B,, | %15
 E,,G,,B,, |!ped! A,,C,E,!ped-up! |!ped! A,,C,E,!ped-up! |!ped! B,,D,E,!ped-up! | %19
!ped! B,,D,E,!ped-up! |!ped! A,,C,E,!ped-up! |!ped! A,,C,E,!ped-up! |!ped! B,,D,E,!ped-up! | %23
!ped! B,,D,E,!ped-up! | A,,C,E, | A,,C,E, | E,,G,,B,, |"^sciolte." G,,/A,,/B,,/A,,/G,,/F,,/ | %28
 E,,G,,B,, | G,,B,,E, | A,,C,E, | A,,C,E, | E,,G,,B,, | E,,G,,B,, | A,,C,E, | A,,C,E, | E,,G,,B,, | %37
 E,,G,,B,, | A,,C,E, | A,,C,E, | E,,G,,B,, | E,,G,,B,, | A,,C,E, | A,,C,E, | E,,G,,B,, | %45
 E,,G,,B,, | A,,C,E, | A,,C,E, | E,,G,,B,, | E,,G,,B,, | A,,[E,A,C][E,A,C] | A,,[E,A,C][E,A,C] | %52
 [E,,E,][E,G,D][E,G,D] | [E,,E,][E,G,D][E,G,D] | A,,C,E, | A,,C,E, | E,,G,,B,, | E,,G,,B,, | %58
 A,E,_C, | A,E,_C, | G,E,D, | G,E,D, | A,E,_C, | A,E,_C, | G,E,D, | G,E,D, | A,, z2 |: %67
 B,,[E,B,D][E,,E,] | [G,,G,][E,B,D][E,,E,] | [A,,A,][E,A,C][E,A,C] | [A,,A,][E,A,C][A,,A,] | %71
 [E,,E,][E,G,D][E,G,D] | [E,,E,][E,G,D][E,,E,] |1 [A,,A,][E,A,C][E,A,C] | A,,[E,A,C][E,A,C] :|2 %75
!ped! A,,C,E,!ped-up! ||!ped! A,,C,E,!ped-up! |!ped! B,,D,E,!ped-up! |!ped! B,,D,E,!ped-up! | %79
!ped! A,,C,E,!ped-up! |!ped! A,,C,E,!ped-up! |!ped! B,,D,E,!ped-up! |!ped! B,,D,E,!ped-up! | %83
 A,,[E,A,C][E,A,C] | [E,,E,][E,G,D][E,G,D] | [E,,E,][E,G,D][E,,E,] | [A,,A,][E,A,C][E,A,C] | %87
 [A,,A,][E,A,C]A,, | E,,[E,G,D][E,G,D] | [E,,E,][E,G,D][E,,E,] |: A,C,E, | A, C,/>E,/F,/>E,/ | %92
 G,D,E, | G, D,/>E,/F,/>E,/ | A,,C,E, | A,,C,E, | B,,D,E, | B,,D,E, | [A,,A,] z2 || %99
[K:Db]!ped! [D,,D,] z2 | [D,,D,] [D,,D,]2!ped-up! |!ped! [A,,,A,,] z2 | %102
 [A,,,A,,] [A,,,A,,]2!ped-up! |!ped! [D,,D,][C,,C,][D,,D,] | [F,,F,]- [F,,F,]2!ped-up! | %105
!ped! [A,,,A,,] z2 | [A,,,A,,] [A,,,A,,]2!ped-up! || D,[A,DF][A,DF] | D, !arpeggio![A,DF]2 | %109
 A,,[A,CG][A,CG] | A,, !arpeggio![A,CG]2 | A,,[A,CG][A,CG] | A,, !arpeggio![A,CG]2 | %113
 D,[F,A,D][F,A,D] | D, !arpeggio![F,A,D]2 | D,[F,A,D][F,A,D] | D, !arpeggio![F,A,D]2 | %117
 A,,[E,A,C][E,A,C] | A,, !arpeggio![E,A,C]2 | E,,[E,=G,B,][E,G,B,] | E,, !arpeggio!!>![E,B,D]2 :| %121
[K:Ab]!ped! A,,C,E,!ped-up! | G,,/B,,/ E,E,, | A,,/C,/ E,E,, | %124
!ped! !>![E,B,D]!>![E,B,D]!>![E,B,D]!ped-up! | [A,C] z2 | [E,,E,]B,,[E,,E,]- | [E,,E,]C,[E,,E,]- | %128
 [E,,E,]/(E,/=D,/_D,/F,,/G,,/) |!ped! !>!A,,!>!C,!>!E,!ped-up! | %130
!ped! G,,/B,,/E,/E,,/F,,/G,,/!ped-up! | A,, z2 | z C,/>E,/F,/>E,/ | G, z2 | %134
 !>![E,,G,,B,,E,]!>![E,,G,,B,,E,]!>![E,,G,,B,,E,] | !>![A,,,C,,E,,A,,] z2 | %136
 !>![A,,A,] z3/2 [A,,,A,,]/ | !fermata![A,,,A,,]3 |] %138
V:4
 x3 | x3 | x3 | x3 | !^![A,,A,]2 x | !^![A,,A,]2 x | !^![B,,G,]2 x | !^![B,,G,]2 x | x3 | x3 | x3 | %11
 x3 | x3 | x3 | x3 | x3 | !^![A,,A,]2 x | !^![A,,A,]2 x | !^![B,,G,]2 x | !^![B,,G,]2 x | %20
 !^![A,,A,]2 x | !^![A,,A,]2 x | !^![B,,G,]2 x | !^![B,,G,]2 x | x3 | x3 | x3 | x3 | x3 | x3 | x3 | %31
 x3 | x3 | x3 | x3 | x3 | x3 | x3 | x3 | x3 | x3 | x3 | x3 | x3 | x3 | x3 | x3 | x3 | x3 | x3 | %50
 x3 | x3 | x3 | x3 | x3 | x3 | x3 | x3 | x3 | x3 | x3 | x3 | x3 | x3 | x3 | x3 | x3 |: x3 | x3 | %69
 x3 | x3 | x3 | x3 |1 x3 | x3 :|2 !^![A,,A,]2 x || !^![A,,A,]2 x | !^![B,,G,]2 x | !^![B,,G,]2 x | %79
 !^![A,,A,]2 x | !^![A,,A,]2 x | !^![B,,G,]2 x | !^![B,,G,]2 x | x3 | x3 | x3 | x3 | x3 | x3 | %89
 x3 |: x3 | x3 | x3 | x3 | !^![A,,A,]2 x | !^![A,,A,]2 x | !^![B,,G,]2 x | !^![B,,G,]2 x | x3 || %99
[K:Db] x3 | x3 | x3 | x3 | x3 | x3 | x3 | x3 || x3 | x3 | x3 | x3 | x3 | x3 | x3 | x3 | x3 | x3 | %117
 x3 | x3 | x3 | x3 :|[K:Ab] x3 | x3 | x3 | x3 | x3 | x3 | x3 | x3 | x3 | x3 | x3 | x3 | x3 | x3 | %135
 x3 | x3 | x3 |] %138

